icon-svg/echo-show-8-group.svg

<svg xmlns="http://www.w3.org/2000/svg" fill="#44739e" viewBox="0 0 24 24"><path d="M18.125 7.019H6.078a.4.4 0 0 0-.372.408l-.443 8.613a.47.47 0 0 0 .123.349.34.34 0 0 0 .249.112H18.5a.344.344 0 0 0 .248-.111.47.47 0 0 0 .125-.346L18.5 7.431a.4.4 0 0 0-.375-.412m-.189 8.781a.523.523 0 0 1-.376.163H6.369a.528.528 0 0 1-.379-.163.648.648 0 0 1-.173-.473l.3-7.176a.58.58 0 0 1 .551-.584l10.712-.016a.578.578 0 0 1 .552.6l.179 7.193a.638.638 0 0 1-.175.456m-12.851-.194a3.418 3.418 0 0 1-2.452-.973 5.93 5.93 0 0 0 .732 1.077 8.6 8.6 0 0 0 1.7.294zm-1.427.379a2.3 2.3 0 0 0 .164.229.314.314 0 0 0 .128.108h.009a10.1 10.1 0 0 0 1.278.2.65.65 0 0 1-.149-.322 12.3 12.3 0 0 1-1.43-.215m15.078-7.668.309 7.1a2.818 2.818 0 0 0 2.507-1.264c.92-1.608-.076-5.07-2.816-5.836M5.1 15.393l.367-7.149c-2.892.648-3.957 4.241-3.015 5.884A2.883 2.883 0 0 0 5.1 15.393m13.793 1.135c-.006.006-.014.008-.019.014a10.2 10.2 0 0 0 1.175-.2c.1-.019.291-.338.291-.338a12.3 12.3 0 0 1-1.295.2.647.647 0 0 1-.152.324m.178-.51a8.56 8.56 0 0 0 1.564-.286 5.84 5.84 0 0 0 .733-1.076 3.425 3.425 0 0 1-2.313.982z"/></svg>

<?xml version="1.0" encoding="UTF-8"?>
<svg width="24px" fill="#44739e" height="24px" viewBox="0 0 24 24" version="1.1" xmlns="http://www.w3.org/2000/svg" xmlns:xlink="http://www.w3.org/1999/xlink">
            <path d="M 18.125,7.019 H 6.078 A 0.4,0.4 0 0 0 5.706,7.427 L 5.263,16.04 a 0.469,0.469 0 0 0 0.123,0.349 0.341,0.341 0 0 0 0.249,0.112 H 18.5 a 0.344,0.344 0 0 0 0.248,-0.111 0.471,0.471 0 0 0 0.125,-0.346 L 18.5,7.431 A 0.4,0.4 0 0 0 18.125,7.019 Z M 17.936,15.8 A 0.523,0.523 0 0 1 17.56,15.963 H 6.369 A 0.528,0.528 0 0 1 5.99,15.8 0.648,0.648 0 0 1 5.817,15.327 l 0.3,-7.176 A 0.58,0.58 0 0 1 6.668,7.567 L 17.38,7.551 a 0.578,0.578 0 0 1 0.552,0.6 l 0.179,7.193 A 0.638,0.638 0 0 1 17.936,15.8 Z M 5.085,15.606 a 3.418,3.418 0 0 1 -2.452,-0.973 5.925,5.925 0 0 0 0.732,1.077 8.6,8.6 0 0 0 1.7,0.294 z m -1.427,0.379 a 2.323,2.323 0 0 0 0.164,0.229 0.314,0.314 0 0 0 0.128,0.108 h 0.009 a 10.072,10.072 0 0 0 1.278,0.2 A 0.652,0.652 0 0 1 5.088,16.2 12.33,12.33 0 0 1 3.658,15.985 Z m 15.078,-7.668 0.309,7.1 a 2.818,2.818 0 0 0 2.507,-1.264 c 0.92,-1.608 -0.076,-5.07 -2.816,-5.836 z M 5.1,15.393 5.467,8.244 C 2.575,8.892 1.51,12.485 2.452,14.128 A 2.883,2.883 0 0 0 5.1,15.393 Z m 13.793,1.135 c -0.006,0.006 -0.014,0.008 -0.019,0.014 a 10.173,10.173 0 0 0 1.175,-0.2 c 0.1,-0.019 0.291,-0.338 0.291,-0.338 a 12.324,12.324 0 0 1 -1.295,0.2 0.647,0.647 0 0 1 -0.152,0.324 z m 0.178,-0.51 a 8.56,8.56 0 0 0 1.564,-0.286 5.838,5.838 0 0 0 0.733,-1.076 3.425,3.425 0 0 1 -2.313,0.982 z"/>

</svg>
